Newaita-dark/apps/48/atomix.svg

<svg height="48" viewBox="0 0 48 48" width="48" xmlns="http://www.w3.org/2000/svg" xmlns:xlink="http://www.w3.org/1999/xlink"><linearGradient id="a"><stop offset="0" stop-opacity=".313726"/><stop offset=".222222" stop-opacity=".27451"/><stop offset="1" stop-opacity="0"/></linearGradient><radialGradient id="b" cx="450.908936" cy="189.579361" gradientTransform="matrix(.00000026 -.117199 -.210958 -.00000015 71.249998 95.392994)" gradientUnits="userSpaceOnUse" r="21.166656" xlink:href="#a"/><radialGradient id="c" cx="450.908936" cy="189.579361" gradientTransform="matrix(-.00000026 .117199 .210958 .00000015 -13.697633 -11.291223)" gradientUnits="userSpaceOnUse" r="21.166656" xlink:href="#a"/><radialGradient id="d" cx="450.908936" cy="189.579361" gradientTransform="matrix(-.00000026 -.117199 .210958 -.00000015 -13.697633 95.392994)" gradientUnits="userSpaceOnUse" r="21.166656" xlink:href="#a"/><radialGradient id="e" cx="450.908936" cy="189.579361" gradientTransform="matrix(.00000026 .117199 -.210958 .00000015 71.249995 -11.291224)" gradientUnits="userSpaceOnUse" r="21.166656" xlink:href="#a"/><linearGradient id="f" gradientTransform="matrix(.0200401 0 0 .093759 23.163349 20.158175)" gradientUnits="userSpaceOnUse" x1="255.323059" x2="255.323044" y1="233.5" y2="254.666656"><stop offset="0" stop-opacity=".27451"/><stop offset="1" stop-opacity="0"/></linearGradient><linearGradient id="g" gradientUnits="userSpaceOnUse" x1="23.814786" x2="23.814786" y1="14.26698462501" y2="42.0509015"><stop offset="0" stop-color="#78909c"/><stop offset="1" stop-color="#607d8b"/></linearGradient><linearGradient id="h"><stop offset="0" stop-color="#ffca28"/><stop offset="1" stop-color="#ffd54f"/></linearGradient><linearGradient id="i" gradientUnits="userSpaceOnUse" x1="1160" x2="1160" xlink:href="#h" y1="495.118103" y2="175.118118"/><linearGradient id="j" gradientUnits="userSpaceOnUse" x1="84.666664" x2="84.666664" xlink:href="#h" y1="127.666656" y2="43"/><linearGradient id="k" gradientUnits="userSpaceOnUse" x1="28.776236" x2="28.776236" y1="42.05096580616" y2="14.26701229293"><stop offset="0" stop-color="#b0bec5"/><stop offset="1" stop-color="#cfd8dc"/></linearGradient><path d="m31.753906 42.050781h3.96875v-1.984375h-3.96875zm0 0" fill="url(#b)"/><path d="m25.800781 42.050781h-3.96875v1.984375h3.96875zm0 0" fill="url(#c)"/><path d="m25.800781 42.050781h-3.96875v-1.984375h3.96875zm0 0" fill="url(#d)"/><path d="m31.753906 42.050781h3.96875v1.984375h-3.96875zm0 0" fill="url(#e)"/><path d="m25.800781 41.554688h5.953125v2.480468h-5.953125zm0 0" fill="url(#f)"/><path d="m28.777344 14.265625c7.671875 0 13.890625 6.222656 13.890625 13.894531s-6.21875 13.890625-13.890625 13.890625-13.894532-6.21875-13.894532-13.890625 6.222657-13.894531 13.894532-13.894531zm0 0" fill="url(#g)"/><path d="m28.777344 14.265625c-7.699219 0-13.894532 6.195313-13.894532 13.894531 0 .039063 0 .082032.003907.121094.066406-7.636719 6.234375-13.765625 13.890625-13.765625 7.652344 0 13.824218 6.128906 13.890625 13.765625 0-.039062 0-.082031 0-.121094 0-7.699218-6.195313-13.894531-13.890625-13.894531zm0 0" fill="#fff" fill-opacity=".392157"/><path d="m1160.046762 175.101398-159.98473 159.984731h79.992365v119.988548c0 22.202605 17.793577 39.996182 39.996183 39.996182h79.992365c22.04514 0 39.996183-17.793577 39.996183-39.996182v-119.988548h79.992365zm0 0" fill="url(#i)" stroke="#212121" stroke-linecap="square" stroke-linejoin="bevel" stroke-width="11.338583" transform="scale(.0248071)"/><path d="m42.329291 85.346318 42.329291 42.329291v-21.164645h31.746968c5.87444 0 10.582323-4.749547 10.582323-10.582323v-21.164645c0-5.874439-4.707883-10.582323-10.582323-10.582323h-31.746968v-21.164646zm0 0" fill="url(#j)" stroke="#212121" stroke-linecap="square" stroke-linejoin="bevel" stroke-width="3" transform="matrix(.093759 0 0 .093759 0 20.158175)"/><path d="m28.777344 42.050781c-7.699219 0-13.894532-6.195312-13.894532-13.890625 0-.042968 0-.082031.003907-.125.0625 7.636719 6.234375 13.769532 13.890625 13.769532 7.652344 0 13.824218-6.132813 13.890625-13.769532v.125c0 7.695313-6.195313 13.890625-13.890625 13.890625zm0 0" fill-opacity=".235294"/><path d="m28.777344 14.125c-7.773438 0-14.035156 6.261719-14.035156 14.035156 0 7.769532 6.261718 14.03125 14.035156 14.03125 7.769531 0 14.03125-6.261718 14.03125-14.03125 0-7.773437-6.261719-14.035156-14.03125-14.035156zm0 .28125c7.621094 0 13.75 6.132812 13.75 13.753906s-6.128906 13.75-13.75 13.75-13.753906-6.128906-13.753906-13.75 6.132812-13.753906 13.753906-13.753906zm0 0" fill="#212121"/><path d="m24.808594 24.191406c-.550782 0-.992188.441406-.992188.992188v5.953125c0 .546875.441406.992187.992188.992187h.992187c.546875 0 .992188-.445312.992188-.992187v-1.984375h3.96875v1.984375c0 .546875.441406.992187.992187.992187h.992188c.550781 0 .992187-.445312.992187-.992187v-5.953125c0-.550782-.441406-.992188-.992187-.992188h-.992188c-.550781 0-.992187.441406-.992187.992188v1.984375h-3.96875v-1.984375c0-.550782-.445313-.992188-.992188-.992188zm0 0" fill="url(#k)"/><path d="m24.808594 24.191406c-.550782 0-.992188.441406-.992188.992188v.371094c0-.550782.441406-.992188.992188-.992188h.992187c.546875 0 .992188.441406.992188.992188v-.371094c0-.550782-.445313-.992188-.992188-.992188zm6.945312 0c-.550781 0-.992187.441406-.992187.992188v.371094c0-.550782.441406-.992188.992187-.992188h.992188c.550781 0 .992187.441406.992187.992188v-.371094c0-.550782-.441406-.992188-.992187-.992188zm-4.960937 2.976563v.371093h3.96875v-.371093zm0 0" fill="#fff" fill-opacity=".890323"/><path d="m26.792969 29.152344v.496094h3.96875v-.496094zm-2.976563 1.984375v.496093c0 .546876.441406.992188.992188.992188h.992187c.546875 0 .992188-.445312.992188-.992188v-.496093c0 .546875-.445313.992187-.992188.992187h-.992187c-.550782 0-.992188-.445312-.992188-.992187zm6.945313 0v.496093c0 .546876.441406.992188.992187.992188h.992188c.550781 0 .992187-.445312.992187-.992188v-.496093c0 .546875-.441406.992187-.992187.992187h-.992188c-.550781 0-.992187-.445312-.992187-.992187zm0 0" fill-opacity=".235294"/><path d="m1000.062032 975.182517c-22.202606 0-39.996183 17.793577-39.996183 39.996182v239.977096c0 22.04514 17.793577 39.996183 39.996183 39.996183h39.996182c22.04514 0 39.996183-17.951043 39.996183-39.996183v-79.992365h159.984731v79.992365c0 22.04514 17.793577 39.996183 39.996182 39.996183h39.996183c22.202605 0 39.996183-17.951043 39.996183-39.996183v-239.977096c0-22.202605-17.793578-39.996182-39.996183-39.996182h-39.996183c-22.202605 0-39.996182 17.793577-39.996182 39.996182v79.992366h-159.984731v-79.992366c0-22.202605-17.951043-39.996182-39.996183-39.996182zm0 0" fill="none" stroke="#212121" stroke-linecap="square" stroke-linejoin="bevel" stroke-width="11.338583" transform="scale(.0248071)"/></svg>

<?xml version="1.0" encoding="UTF-8"?>
<svg xmlns="http://www.w3.org/2000/svg" xmlns:xlink="http://www.w3.org/1999/xlink" width="48px" height="48px" viewBox="0 0 48 48" version="1.1">
<defs>
<radialGradient id="radial0" gradientUnits="userSpaceOnUse" cx="450.908936" cy="189.579361" fx="450.908936" fy="189.579361" r="21.166656" gradientTransform="matrix(0.000000261256,-0.117199,-0.210958,-0.000000152308,71.249998,95.392994)">
<stop offset="0" style="stop-color:rgb(0%,0%,0%);stop-opacity:0.313726;"/>
<stop offset="0.222222" style="stop-color:rgb(0%,0%,0%);stop-opacity:0.27451;"/>
<stop offset="1" style="stop-color:rgb(0%,0%,0%);stop-opacity:0;"/>
</radialGradient>
<radialGradient id="radial1" gradientUnits="userSpaceOnUse" cx="450.908936" cy="189.579361" fx="450.908936" fy="189.579361" r="21.166656" gradientTransform="matrix(-0.000000261256,0.117199,0.210958,0.000000152308,-13.697633,-11.291223)">
<stop offset="0" style="stop-color:rgb(0%,0%,0%);stop-opacity:0.313726;"/>
<stop offset="0.222222" style="stop-color:rgb(0%,0%,0%);stop-opacity:0.27451;"/>
<stop offset="1" style="stop-color:rgb(0%,0%,0%);stop-opacity:0;"/>
</radialGradient>
<radialGradient id="radial2" gradientUnits="userSpaceOnUse" cx="450.908936" cy="189.579361" fx="450.908936" fy="189.579361" r="21.166656" gradientTransform="matrix(-0.000000261256,-0.117199,0.210958,-0.000000152308,-13.697633,95.392994)">
<stop offset="0" style="stop-color:rgb(0%,0%,0%);stop-opacity:0.313726;"/>
<stop offset="0.222222" style="stop-color:rgb(0%,0%,0%);stop-opacity:0.27451;"/>
<stop offset="1" style="stop-color:rgb(0%,0%,0%);stop-opacity:0;"/>
</radialGradient>
<radialGradient id="radial3" gradientUnits="userSpaceOnUse" cx="450.908936" cy="189.579361" fx="450.908936" fy="189.579361" r="21.166656" gradientTransform="matrix(0.000000261256,0.117199,-0.210958,0.000000152308,71.249995,-11.291224)">
<stop offset="0" style="stop-color:rgb(0%,0%,0%);stop-opacity:0.313726;"/>
<stop offset="0.222222" style="stop-color:rgb(0%,0%,0%);stop-opacity:0.27451;"/>
<stop offset="1" style="stop-color:rgb(0%,0%,0%);stop-opacity:0;"/>
</radialGradient>
<linearGradient id="linear0" gradientUnits="userSpaceOnUse" x1="255.323059" y1="233.5" x2="255.323044" y2="254.666656" gradientTransform="matrix(0.0200401,0,0,0.093759,23.163349,20.158175)">
<stop offset="0" style="stop-color:rgb(0%,0%,0%);stop-opacity:0.27451;"/>
<stop offset="1" style="stop-color:rgb(0%,0%,0%);stop-opacity:0;"/>
</linearGradient>
<linearGradient id="linear1" gradientUnits="userSpaceOnUse" x1="254" y1="-62.833332" x2="254" y2="233.5" gradientTransform="matrix(0.093759,0,0,0.093759,0,20.158175)">
<stop offset="0" style="stop-color:rgb(47.058824%,56.470591%,61.176473%);stop-opacity:1;"/>
<stop offset="1" style="stop-color:rgb(37.64706%,49.019608%,54.509807%);stop-opacity:1;"/>
</linearGradient>
<linearGradient id="linear2" gradientUnits="userSpaceOnUse" x1="1160" y1="495.118103" x2="1160" y2="175.118118" gradientTransform="matrix(1,0,0,1,0,-0)">
<stop offset="0" style="stop-color:rgb(100%,79.215688%,15.686275%);stop-opacity:1;"/>
<stop offset="1" style="stop-color:rgb(100%,83.529413%,30.980393%);stop-opacity:1;"/>
</linearGradient>
<linearGradient id="linear3" gradientUnits="userSpaceOnUse" x1="84.666664" y1="127.666656" x2="84.666664" y2="43" gradientTransform="matrix(1,0,0,1,0,0)">
<stop offset="0" style="stop-color:rgb(100%,79.215688%,15.686275%);stop-opacity:1;"/>
<stop offset="1" style="stop-color:rgb(100%,83.529413%,30.980393%);stop-opacity:1;"/>
</linearGradient>
<linearGradient id="linear4" gradientUnits="userSpaceOnUse" x1="1160" y1="1695.118164" x2="1160" y2="575.118103" gradientTransform="matrix(0.0248071,0,0,0.0248071,0,0.00000000000000282)">
<stop offset="0" style="stop-color:rgb(69.01961%,74.509805%,77.254903%);stop-opacity:1;"/>
<stop offset="1" style="stop-color:rgb(81.176472%,84.705883%,86.274511%);stop-opacity:1;"/>
</linearGradient>
</defs>
<g id="surface1">
<path style=" stroke:none;fill-rule:nonzero;fill:url(#radial0);" d="M 31.753906 42.050781 L 35.722656 42.050781 L 35.722656 40.066406 L 31.753906 40.066406 Z M 31.753906 42.050781 "/>
<path style=" stroke:none;fill-rule:nonzero;fill:url(#radial1);" d="M 25.800781 42.050781 L 21.832031 42.050781 L 21.832031 44.035156 L 25.800781 44.035156 Z M 25.800781 42.050781 "/>
<path style=" stroke:none;fill-rule:nonzero;fill:url(#radial2);" d="M 25.800781 42.050781 L 21.832031 42.050781 L 21.832031 40.066406 L 25.800781 40.066406 Z M 25.800781 42.050781 "/>
<path style=" stroke:none;fill-rule:nonzero;fill:url(#radial3);" d="M 31.753906 42.050781 L 35.722656 42.050781 L 35.722656 44.035156 L 31.753906 44.035156 Z M 31.753906 42.050781 "/>
<path style=" stroke:none;fill-rule:nonzero;fill:url(#linear0);" d="M 25.800781 41.554688 L 31.753906 41.554688 L 31.753906 44.035156 L 25.800781 44.035156 Z M 25.800781 41.554688 "/>
<path style=" stroke:none;fill-rule:nonzero;fill:url(#linear1);" d="M 28.777344 14.265625 C 36.449219 14.265625 42.667969 20.488281 42.667969 28.160156 C 42.667969 35.832031 36.449219 42.050781 28.777344 42.050781 C 21.105469 42.050781 14.882812 35.832031 14.882812 28.160156 C 14.882812 20.488281 21.105469 14.265625 28.777344 14.265625 Z M 28.777344 14.265625 "/>
<path style=" stroke:none;fill-rule:nonzero;fill:rgb(100%,100%,100%);fill-opacity:0.392157;" d="M 28.777344 14.265625 C 21.078125 14.265625 14.882812 20.460938 14.882812 28.160156 C 14.882812 28.199219 14.882812 28.242188 14.886719 28.28125 C 14.953125 20.644531 21.121094 14.515625 28.777344 14.515625 C 36.429688 14.515625 42.601562 20.644531 42.667969 28.28125 C 42.667969 28.242188 42.667969 28.199219 42.667969 28.160156 C 42.667969 20.460938 36.472656 14.265625 28.777344 14.265625 Z M 28.777344 14.265625 "/>
<path style="fill-rule:nonzero;fill:url(#linear2);stroke-width:11.338583;stroke-linecap:square;stroke-linejoin:bevel;stroke:rgb(12.941177%,12.941177%,12.941177%);stroke-opacity:1;stroke-miterlimit:4;" d="M 1160.046762 175.101398 L 1000.062032 335.086129 L 1080.054397 335.086129 L 1080.054397 455.074677 C 1080.054397 477.277282 1097.847974 495.070859 1120.05058 495.070859 L 1200.042945 495.070859 C 1222.088085 495.070859 1240.039128 477.277282 1240.039128 455.074677 L 1240.039128 335.086129 L 1320.031493 335.086129 Z M 1160.046762 175.101398 " transform="matrix(0.0248071,0,0,0.0248071,0,0)"/>
<path style="fill-rule:nonzero;fill:url(#linear3);stroke-width:3;stroke-linecap:square;stroke-linejoin:bevel;stroke:rgb(12.941177%,12.941177%,12.941177%);stroke-opacity:1;stroke-miterlimit:4;" d="M 42.329291 85.346318 L 84.658582 127.675609 L 84.658582 106.510964 L 116.40555 106.510964 C 122.27999 106.510964 126.987873 101.761417 126.987873 95.928641 L 126.987873 74.763996 C 126.987873 68.889557 122.27999 64.181673 116.40555 64.181673 L 84.658582 64.181673 L 84.658582 43.017027 Z M 42.329291 85.346318 " transform="matrix(0.093759,0,0,0.093759,0,20.158175)"/>
<path style=" stroke:none;fill-rule:nonzero;fill:rgb(0%,0%,0%);fill-opacity:0.235294;" d="M 28.777344 42.050781 C 21.078125 42.050781 14.882812 35.855469 14.882812 28.160156 C 14.882812 28.117188 14.882812 28.078125 14.886719 28.035156 C 14.949219 35.671875 21.121094 41.804688 28.777344 41.804688 C 36.429688 41.804688 42.601562 35.671875 42.667969 28.035156 C 42.667969 28.078125 42.667969 28.117188 42.667969 28.160156 C 42.667969 35.855469 36.472656 42.050781 28.777344 42.050781 Z M 28.777344 42.050781 "/>
<path style=" stroke:none;fill-rule:nonzero;fill:rgb(12.941177%,12.941177%,12.941177%);fill-opacity:1;" d="M 28.777344 14.125 C 21.003906 14.125 14.742188 20.386719 14.742188 28.160156 C 14.742188 35.929688 21.003906 42.191406 28.777344 42.191406 C 36.546875 42.191406 42.808594 35.929688 42.808594 28.160156 C 42.808594 20.386719 36.546875 14.125 28.777344 14.125 Z M 28.777344 14.40625 C 36.398438 14.40625 42.527344 20.539062 42.527344 28.160156 C 42.527344 35.78125 36.398438 41.910156 28.777344 41.910156 C 21.15625 41.910156 15.023438 35.78125 15.023438 28.160156 C 15.023438 20.539062 21.15625 14.40625 28.777344 14.40625 Z M 28.777344 14.40625 "/>
<path style=" stroke:none;fill-rule:nonzero;fill:url(#linear4);" d="M 24.808594 24.191406 C 24.257812 24.191406 23.816406 24.632812 23.816406 25.183594 L 23.816406 31.136719 C 23.816406 31.683594 24.257812 32.128906 24.808594 32.128906 L 25.800781 32.128906 C 26.347656 32.128906 26.792969 31.683594 26.792969 31.136719 L 26.792969 29.152344 L 30.761719 29.152344 L 30.761719 31.136719 C 30.761719 31.683594 31.203125 32.128906 31.753906 32.128906 L 32.746094 32.128906 C 33.296875 32.128906 33.738281 31.683594 33.738281 31.136719 L 33.738281 25.183594 C 33.738281 24.632812 33.296875 24.191406 32.746094 24.191406 L 31.753906 24.191406 C 31.203125 24.191406 30.761719 24.632812 30.761719 25.183594 L 30.761719 27.167969 L 26.792969 27.167969 L 26.792969 25.183594 C 26.792969 24.632812 26.347656 24.191406 25.800781 24.191406 Z M 24.808594 24.191406 "/>
<path style=" stroke:none;fill-rule:nonzero;fill:rgb(100%,100%,100%);fill-opacity:0.890323;" d="M 24.808594 24.191406 C 24.257812 24.191406 23.816406 24.632812 23.816406 25.183594 L 23.816406 25.554688 C 23.816406 25.003906 24.257812 24.5625 24.808594 24.5625 L 25.800781 24.5625 C 26.347656 24.5625 26.792969 25.003906 26.792969 25.554688 L 26.792969 25.183594 C 26.792969 24.632812 26.347656 24.191406 25.800781 24.191406 Z M 31.753906 24.191406 C 31.203125 24.191406 30.761719 24.632812 30.761719 25.183594 L 30.761719 25.554688 C 30.761719 25.003906 31.203125 24.5625 31.753906 24.5625 L 32.746094 24.5625 C 33.296875 24.5625 33.738281 25.003906 33.738281 25.554688 L 33.738281 25.183594 C 33.738281 24.632812 33.296875 24.191406 32.746094 24.191406 Z M 26.792969 27.167969 L 26.792969 27.539062 L 30.761719 27.539062 L 30.761719 27.167969 Z M 26.792969 27.167969 "/>
<path style=" stroke:none;fill-rule:nonzero;fill:rgb(0%,0%,0%);fill-opacity:0.235294;" d="M 26.792969 29.152344 L 26.792969 29.648438 L 30.761719 29.648438 L 30.761719 29.152344 Z M 23.816406 31.136719 L 23.816406 31.632812 C 23.816406 32.179688 24.257812 32.625 24.808594 32.625 L 25.800781 32.625 C 26.347656 32.625 26.792969 32.179688 26.792969 31.632812 L 26.792969 31.136719 C 26.792969 31.683594 26.347656 32.128906 25.800781 32.128906 L 24.808594 32.128906 C 24.257812 32.128906 23.816406 31.683594 23.816406 31.136719 Z M 30.761719 31.136719 L 30.761719 31.632812 C 30.761719 32.179688 31.203125 32.625 31.753906 32.625 L 32.746094 32.625 C 33.296875 32.625 33.738281 32.179688 33.738281 31.632812 L 33.738281 31.136719 C 33.738281 31.683594 33.296875 32.128906 32.746094 32.128906 L 31.753906 32.128906 C 31.203125 32.128906 30.761719 31.683594 30.761719 31.136719 Z M 30.761719 31.136719 "/>
<path style="fill:none;stroke-width:11.338583;stroke-linecap:square;stroke-linejoin:bevel;stroke:rgb(12.941177%,12.941177%,12.941177%);stroke-opacity:1;stroke-miterlimit:4;" d="M 1000.062032 975.182517 C 977.859426 975.182517 960.065849 992.976094 960.065849 1015.178699 L 960.065849 1255.155795 C 960.065849 1277.200935 977.859426 1295.151978 1000.062032 1295.151978 L 1040.058214 1295.151978 C 1062.103354 1295.151978 1080.054397 1277.200935 1080.054397 1255.155795 L 1080.054397 1175.16343 L 1240.039128 1175.16343 L 1240.039128 1255.155795 C 1240.039128 1277.200935 1257.832705 1295.151978 1280.03531 1295.151978 L 1320.031493 1295.151978 C 1342.234098 1295.151978 1360.027676 1277.200935 1360.027676 1255.155795 L 1360.027676 1015.178699 C 1360.027676 992.976094 1342.234098 975.182517 1320.031493 975.182517 L 1280.03531 975.182517 C 1257.832705 975.182517 1240.039128 992.976094 1240.039128 1015.178699 L 1240.039128 1095.171065 L 1080.054397 1095.171065 L 1080.054397 1015.178699 C 1080.054397 992.976094 1062.103354 975.182517 1040.058214 975.182517 Z M 1000.062032 975.182517 " transform="matrix(0.0248071,0,0,0.0248071,0,0)"/>
</g>
</svg>
